public/apps/atelier-des-idees/src/img/how-to-approve.svg

<svg xmlns="http://www.w3.org/2000/svg" xmlns:xlink="http://www.w3.org/1999/xlink" width="377" height="177" viewBox="0 0 377 177"><defs><linearGradient id="how-to-approve-c" x1="0%" y1="0%" y2="100%"><stop offset="0%" stop-color="#FAFBFC"/><stop offset="100%" stop-color="#FFF"/></linearGradient><path id="how-to-approve-b" d="M0,0 L300,0 L300,109 C300,112.313708 297.313708,115 294,115 L0,115 L0,0 Z"/><filter id="how-to-approve-a" width="121%" height="154.8%" x="-6.8%" y="-14.3%" filterUnits="objectBoundingBox"><feOffset dx="11" dy="15" in="SourceAlpha" result="shadowOffsetOuter1"/><feGaussianBlur in="shadowOffsetOuter1" result="shadowBlurOuter1" stdDeviation="8"/><feColorMatrix in="shadowBlurOuter1" values="0 0 0 0 0.556389192 0 0 0 0 0.562905632 0 0 0 0 0.578709609 0 0 0 0.1 0"/></filter><linearGradient id="how-to-approve-d" x1="50%" x2="0%" y1="50%" y2="50%"><stop offset="0%" stop-color="#EAEDEF"/><stop offset="100%" stop-color="#FAFBFC"/></linearGradient><linearGradient id="how-to-approve-e" x1="0%" x2="67.585%" y1="50%" y2="50%"><stop offset="0%" stop-color="#FAFBFC"/><stop offset="100%" stop-color="#EAEDEF"/></linearGradient></defs><g fill="none" fill-rule="evenodd" transform="translate(39 22)"><use fill="#000" filter="url(#how-to-approve-a)" xlink:href="#how-to-approve-b"/><use fill="url(#how-to-approve-c)" xlink:href="#how-to-approve-b"/><path fill="url(#how-to-approve-d)" d="M0,23 L239,23 C242.313708,23 245,25.6862915 245,29 L245,29 C245,32.3137085 242.313708,35 239,35 L0,35 L0,23 Z"/><path fill="url(#how-to-approve-e)" d="M0,43 L101,43 C104.313708,43 107,45.6862915 107,49 L107,49 C107,52.3137085 104.313708,55 101,55 L0,55 L0,43 Z"/><g transform="translate(124 74)"><path fill="#1D5FD1" d="M97.3769531,15.6860352 L94.8720703,15.6860352 L94.8720703,20 L93.4584961,20 L93.4584961,9.3359375 L96.9887695,9.3359375 C98.1899474,9.3359375 99.1140104,9.60937227 99.7609863,10.15625 C100.407962,10.7031277 100.731445,11.4990182 100.731445,12.5439453 C100.731445,13.2080111 100.552004,13.7866186 100.193115,14.2797852 C99.8342267,14.7729517 99.3349641,15.1416003 98.6953125,15.3857422 L101.200195,19.9121094 L101.200195,20 L99.6914062,20 L97.3769531,15.6860352 Z M94.8720703,14.5361328 L97.0327148,14.5361328 C97.7309605,14.5361328 98.2863749,14.3554706 98.6989746,13.9941406 C99.1115743,13.6328107 99.3178711,13.1494171 99.3178711,12.5439453 C99.3178711,11.8847623 99.1213399,11.3793963 98.7282715,11.027832 C98.3352031,10.6762678 97.7675818,10.4980469 97.0253906,10.4931641 L94.8720703,10.4931641 L94.8720703,14.5361328 Z M105.777832,20.1464844 C104.703608,20.1464844 103.829593,19.7937047 103.155762,19.0881348 C102.48193,18.3825648 102.14502,17.4389708 102.14502,16.2573242 L102.14502,16.0083008 C102.14502,15.222164 102.295165,14.5202668 102.595459,13.9025879 C102.895753,13.284909 103.315671,12.8015154 103.855225,12.4523926 C104.394778,12.1032697 104.979489,11.9287109 105.609375,11.9287109 C106.639654,11.9287109 107.440427,12.268063 108.011719,12.9467773 C108.583011,13.6254917 108.868652,14.5971616 108.868652,15.8618164 L108.868652,16.4257812 L103.5,16.4257812 C103.519531,17.2070352 103.747801,17.8381324 104.184814,18.3190918 C104.621828,18.8000512 105.177243,19.0405273 105.851074,19.0405273 C106.329592,19.0405273 106.734862,18.9428721 107.066895,18.7475586 C107.398927,18.5522451 107.689452,18.2934586 107.938477,17.9711914 L108.766113,18.6157227 C108.102047,19.6362356 107.105964,20.1464844 105.777832,20.1464844 Z M105.609375,13.0419922 C105.062497,13.0419922 104.603517,13.2409648 104.232422,13.638916 C103.861326,14.0368672 103.631836,14.594723 103.543945,15.3125 L107.513672,15.3125 L107.513672,15.2099609 C107.474609,14.5214809 107.289064,13.988039 106.957031,13.6096191 C106.624998,13.2311993 106.175784,13.0419922 105.609375,13.0419922 Z M106.268555,8.75 L107.90918,8.75 L105.946289,10.9033203 L104.85498,10.9033203 L106.268555,8.75 Z M117.130371,16.1254883 C117.130371,17.331549 116.854495,18.303219 116.302734,19.0405273 C115.750974,19.7778357 115.003911,20.1464844 114.061523,20.1464844 C113.099605,20.1464844 112.342776,19.8413116 111.791016,19.230957 L111.791016,23.046875 L110.436035,23.046875 L110.436035,12.0751953 L111.673828,12.0751953 L111.739746,12.9541016 C112.291507,12.2705044 113.058101,11.9287109 114.039551,11.9287109 C114.991704,11.9287109 115.74487,12.2875941 116.299072,13.0053711 C116.853274,13.7231481 117.130371,14.7216733 117.130371,16.0009766 L117.130371,16.1254883 Z M115.775391,15.9716797 C115.775391,15.0781205 115.584963,14.3725612 115.204102,13.8549805 C114.82324,13.3373998 114.300785,13.0786133 113.636719,13.0786133 C112.816402,13.0786133 112.201174,13.4423792 111.791016,14.1699219 L111.791016,17.956543 C112.196291,18.6792028 112.816402,19.0405273 113.651367,19.0405273 C114.300784,19.0405273 114.817137,18.7829616 115.200439,18.2678223 C115.583742,17.752683 115.775391,16.9873098 115.775391,15.9716797 Z M118.492676,15.9643555 C118.492676,15.1879844 118.645262,14.4897492 118.950439,13.8696289 C119.255617,13.2495086 119.680417,12.7709978 120.224854,12.434082 C120.76929,12.0971663 121.390622,11.9287109 122.088867,11.9287109 C123.167974,11.9287109 124.040768,12.3022424 124.707275,13.0493164 C125.373783,13.7963905 125.707031,14.7900329 125.707031,16.0302734 L125.707031,16.1254883 C125.707031,16.8969765 125.559328,17.5891083 125.263916,18.2019043 C124.968504,18.8147003 124.546145,19.2919905 123.996826,19.6337891 C123.447507,19.9755876 122.81641,20.1464844 122.103516,20.1464844 C121.029292,20.1464844 120.158939,19.772953 119.492432,19.0258789 C118.825924,18.2788049 118.492676,17.2900452 118.492676,16.0595703 L118.492676,15.9643555 Z M119.85498,16.1254883 C119.85498,17.0043989 120.058836,17.7099583 120.466553,18.2421875 C120.87427,18.7744167 121.419918,19.0405273 122.103516,19.0405273 C122.791996,19.0405273 123.338865,18.7707547 123.744141,18.2312012 C124.149416,17.6916477 124.352051,16.93604 124.352051,15.9643555 C124.352051,15.0952105 124.145754,14.3908718 123.733154,13.8513184 C123.320555,13.3117649 122.772464,13.0419922 122.088867,13.0419922 C121.419919,13.0419922 120.880373,13.3081028 120.470215,13.840332 C120.060057,14.3725613 119.85498,15.1342724 119.85498,16.1254883 Z M128.687988,12.0751953 L128.731934,13.0712891 C129.337405,12.3095665 130.128413,11.9287109 131.10498,11.9287109 C132.779794,11.9287109 133.624512,12.8735257 133.63916,14.7631836 L133.63916,20 L132.28418,20 L132.28418,14.7558594 C132.279297,14.1845675 132.148683,13.7622084 131.892334,13.4887695 C131.635985,13.2153307 131.236819,13.0786133 130.694824,13.0786133 C130.255369,13.0786133 129.869631,13.1957996 129.537598,13.4301758 C129.205565,13.664552 128.946778,13.9721661 128.76123,14.3530273 L128.76123,20 L127.40625,20 L127.40625,12.0751953 L128.687988,12.0751953 Z M135.353027,15.9716797 C135.353027,14.7558533 135.64111,13.7780799 136.217285,13.0383301 C136.79346,12.2985803 137.547847,11.9287109 138.480469,11.9287109 C139.408208,11.9287109 140.143064,12.2460906 140.685059,12.8808594 L140.685059,8.75 L142.040039,8.75 L142.040039,20 L140.794922,20 L140.729004,19.1503906 C140.187009,19.8144564 139.432622,20.1464844 138.46582,20.1464844 C137.547847,20.1464844 136.799563,19.7705116 136.220947,19.0185547 C135.642331,18.2665978 135.353027,17.2851623 135.353027,16.0742188 L135.353027,15.9716797 Z M136.708008,16.1254883 C136.708008,17.0239303 136.893553,17.7270482 137.264648,18.2348633 C137.635744,18.7426783 138.148434,18.996582 138.802734,18.996582 C139.662114,18.996582 140.289549,18.6108437 140.685059,17.8393555 L140.685059,14.1992188 C140.279783,13.4521447 139.657231,13.0786133 138.817383,13.0786133 C138.153317,13.0786133 137.635744,13.3349584 137.264648,13.8476562 C136.893553,14.3603541 136.708008,15.1196239 136.708008,16.1254883 Z M147.972656,13.2910156 C147.767577,13.2568358 147.545411,13.2397461 147.306152,13.2397461 C146.417476,13.2397461 145.814455,13.6181603 145.49707,14.375 L145.49707,20 L144.14209,20 L144.14209,12.0751953 L145.460449,12.0751953 L145.482422,12.9907227 C145.92676,12.2827113 146.556637,11.9287109 147.37207,11.9287109 C147.635744,11.9287109 147.835937,11.9628903 147.972656,12.03125 L147.972656,13.2910156 Z M152.367188,20.1464844 C151.292963,20.1464844 150.418949,19.7937047 149.745117,19.0881348 C149.071286,18.3825648 148.734375,17.4389708 148.734375,16.2573242 L148.734375,16.0083008 C148.734375,15.222164 148.88452,14.5202668 149.184814,13.9025879 C149.485109,13.284909 149.905027,12.8015154 150.44458,12.4523926 C150.984134,12.1032697 151.568845,11.9287109 152.19873,11.9287109 C153.229009,11.9287109 154.029782,12.268063 154.601074,12.9467773 C155.172366,13.6254917 155.458008,14.5971616 155.458008,15.8618164 L155.458008,16.4257812 L150.089355,16.4257812 C150.108887,17.2070352 150.337156,17.8381324 150.77417,18.3190918 C151.211184,18.8000512 151.766598,19.0405273 152.44043,19.0405273 C152.918948,19.0405273 153.324217,18.9428721 153.65625,18.7475586 C153.988283,18.5522451 154.278807,18.2934586 154.527832,17.9711914 L155.355469,18.6157227 C154.691403,19.6362356 153.695319,20.1464844 152.367188,20.1464844 Z M152.19873,13.0419922 C151.651853,13.0419922 151.192873,13.2409648 150.821777,13.638916 C150.450682,14.0368672 150.221192,14.594723 150.133301,15.3125 L154.103027,15.3125 L154.103027,15.2099609 C154.063965,14.5214809 153.87842,13.988039 153.546387,13.6096191 C153.214354,13.2311993 152.76514,13.0419922 152.19873,13.0419922 Z"/><rect width="15" height="19" x="77" y="6" fill="#FFF"/><rect width="85" height="30" fill="#EBF9F1" rx="5"/><path fill="#1DD16E" d="M15.5644531,17.2167969 L11.0966797,17.2167969 L10.0932617,20 L8.64306641,20 L12.715332,9.3359375 L13.9458008,9.3359375 L18.0253906,20 L16.5825195,20 L15.5644531,17.2167969 Z M11.5214844,16.0595703 L15.1469727,16.0595703 L13.3305664,11.0717773 L11.5214844,16.0595703 Z M25.9428711,16.1254883 C25.9428711,17.331549 25.6669949,18.303219 25.1152344,19.0405273 C24.5634738,19.7778357 23.816411,20.1464844 22.8740234,20.1464844 C21.9121046,20.1464844 21.1552762,19.8413116 20.6035156,19.230957 L20.6035156,23.046875 L19.2485352,23.046875 L19.2485352,12.0751953 L20.4863281,12.0751953 L20.5522461,12.9541016 C21.1040067,12.2705044 21.8706006,11.9287109 22.8520508,11.9287109 C23.804204,11.9287109 24.5573703,12.2875941 25.1115723,13.0053711 C25.6657743,13.7231481 25.9428711,14.7216733 25.9428711,16.0009766 L25.9428711,16.1254883 Z M24.5878906,15.9716797 C24.5878906,15.0781205 24.3974628,14.3725612 24.0166016,13.8549805 C23.6357403,13.3373998 23.1132846,13.0786133 22.4492188,13.0786133 C21.6289021,13.0786133 21.0136739,13.4423792 20.6035156,14.1699219 L20.6035156,17.956543 C21.0087911,18.6792028 21.6289021,19.0405273 22.4638672,19.0405273 C23.1132845,19.0405273 23.6296368,18.7829616 24.0129395,18.2678223 C24.3962422,17.752683 24.5878906,16.9873098 24.5878906,15.9716797 Z M34.3583984,16.1254883 C34.3583984,17.331549 34.0825223,18.303219 33.5307617,19.0405273 C32.9790011,19.7778357 32.2319383,20.1464844 31.2895508,20.1464844 C30.3276319,20.1464844 29.5708035,19.8413116 29.019043,19.230957 L29.019043,23.046875 L27.6640625,23.046875 L27.6640625,12.0751953 L28.9018555,12.0751953 L28.9677734,12.9541016 C29.519534,12.2705044 30.2861279,11.9287109 31.2675781,11.9287109 C32.2197313,11.9287109 32.9728976,12.2875941 33.5270996,13.0053711 C34.0813016,13.7231481 34.3583984,14.7216733 34.3583984,16.0009766 L34.3583984,16.1254883 Z M33.003418,15.9716797 C33.003418,15.0781205 32.8129902,14.3725612 32.4321289,13.8549805 C32.0512676,13.3373998 31.5288119,13.0786133 30.8647461,13.0786133 C30.0444295,13.0786133 29.4292013,13.4423792 29.019043,14.1699219 L29.019043,17.956543 C29.4243184,18.6792028 30.0444294,19.0405273 30.8793945,19.0405273 C31.5288118,19.0405273 32.0451641,18.7829616 32.4284668,18.2678223 C32.8117695,17.752683 33.003418,16.9873098 33.003418,15.9716797 Z M39.9101562,13.2910156 C39.7050771,13.2568358 39.4829114,13.2397461 39.2436523,13.2397461 C38.354976,13.2397461 37.7519547,13.6181603 37.4345703,14.375 L37.4345703,20 L36.0795898,20 L36.0795898,12.0751953 L37.3979492,12.0751953 L37.4199219,12.9907227 C37.86426,12.2827113 38.4941365,11.9287109 39.3095703,11.9287109 C39.5732435,11.9287109 39.7734368,11.9628903 39.9101562,12.03125 L39.9101562,13.2910156 Z M40.6499023,15.9643555 C40.6499023,15.1879844 40.8024887,14.4897492 41.107666,13.8696289 C41.4128433,13.2495086 41.8376438,12.7709978 42.3820801,12.434082 C42.9265164,12.0971663 43.5478481,11.9287109 44.2460938,11.9287109 C45.3252007,11.9287109 46.1979947,12.3022424 46.864502,13.0493164 C47.5310092,13.7963905 47.8642578,14.7900329 47.8642578,16.0302734 L47.8642578,16.1254883 C47.8642578,16.8969765 47.7165542,17.5891083 47.4211426,18.2019043 C47.1257309,18.8147003 46.7033719,19.2919905 46.1540527,19.6337891 C45.6047336,19.9755876 44.9736364,20.1464844 44.2607422,20.1464844 C43.1865181,20.1464844 42.3161654,19.772953 41.6496582,19.0258789 C40.983151,18.2788049 40.6499023,17.2900452 40.6499023,16.0595703 L40.6499023,15.9643555 Z M42.012207,16.1254883 C42.012207,17.0043989 42.2160624,17.7099583 42.6237793,18.2421875 C43.0314962,18.7744167 43.577145,19.0405273 44.2607422,19.0405273 C44.9492222,19.0405273 45.4960917,18.7707547 45.9013672,18.2312012 C46.3066427,17.6916477 46.5092773,16.93604 46.5092773,15.9643555 C46.5092773,15.0952105 46.3029806,14.3908718 45.8903809,13.8513184 C45.4777811,13.3117649 44.9296909,13.0419922 44.2460938,13.0419922 C43.5771451,13.0419922 43.0375997,13.3081028 42.6274414,13.840332 C42.2172831,14.3725613 42.012207,15.1342724 42.012207,16.1254883 Z M54.4560547,19.2163086 C53.9287083,19.8364289 53.1547903,20.1464844 52.1342773,20.1464844 C51.2895466,20.1464844 50.6462424,19.9011255 50.2043457,19.4104004 C49.762449,18.9196753 49.5390625,18.1933642 49.5341797,17.2314453 L49.5341797,12.0751953 L50.8891602,12.0751953 L50.8891602,17.1948242 C50.8891602,18.3960021 51.3774365,18.996582 52.3540039,18.996582 C53.3891653,18.996582 54.077635,18.6108437 54.4194336,17.8393555 L54.4194336,12.0751953 L55.7744141,12.0751953 L55.7744141,20 L54.4853516,20 L54.4560547,19.2163086 Z M60.4472656,18.1616211 L62.4101562,12.0751953 L63.7944336,12.0751953 L60.9526367,20 L59.9199219,20 L57.0488281,12.0751953 L58.4331055,12.0751953 L60.4472656,18.1616211 Z M68.2915039,20.1464844 C67.2172798,20.1464844 66.3432651,19.7937047 65.6694336,19.0881348 C64.9956021,18.3825648 64.6586914,17.4389708 64.6586914,16.2573242 L64.6586914,16.0083008 C64.6586914,15.222164 64.8088364,14.5202668 65.1091309,13.9025879 C65.4094253,13.284909 65.829343,12.8015154 66.3688965,12.4523926 C66.90845,12.1032697 67.4931609,11.9287109 68.1230469,11.9287109 C69.1533255,11.9287109 69.9540987,12.268063 70.5253906,12.9467773 C71.0966825,13.6254917 71.3823242,14.5971616 71.3823242,15.8618164 L71.3823242,16.4257812 L66.0136719,16.4257812 C66.0332032,17.2070352 66.2614724,17.8381324 66.6984863,18.3190918 C67.1355002,18.8000512 67.6909146,19.0405273 68.3647461,19.0405273 C68.8432641,19.0405273 69.2485335,18.9428721 69.5805664,18.7475586 C69.9125993,18.5522451 70.2031238,18.2934586 70.4521484,17.9711914 L71.2797852,18.6157227 C70.6157193,19.6362356 69.6196355,20.1464844 68.2915039,20.1464844 Z M68.1230469,13.0419922 C67.5761691,13.0419922 67.1171894,13.2409648 66.7460938,13.638916 C66.3749981,14.0368672 66.1455083,14.594723 66.0576172,15.3125 L70.0273438,15.3125 L70.0273438,15.2099609 C69.9882811,14.5214809 69.802736,13.988039 69.4707031,13.6096191 C69.1386702,13.2311993 68.689456,13.0419922 68.1230469,13.0419922 Z M76.7802734,13.2910156 C76.5751943,13.2568358 76.3530285,13.2397461 76.1137695,13.2397461 C75.2250932,13.2397461 74.6220719,13.6181603 74.3046875,14.375 L74.3046875,20 L72.949707,20 L72.949707,12.0751953 L74.2680664,12.0751953 L74.2900391,12.9907227 C74.7343772,12.2827113 75.3642537,11.9287109 76.1796875,11.9287109 C76.4433607,11.9287109 76.643554,11.9628903 76.7802734,12.03125 L76.7802734,13.2910156 Z"/></g></g></svg>

<svg xmlns:xlink="http://www.w3.org/1999/xlink" viewBox="0 0 377 177"><defs><linearGradient id="c" x1="0%" y1="0%" y2="100%"><stop offset="0%" stop-color="#FAFBFC"/><stop offset="100%" stop-color="#FFF"/></linearGradient><path id="b" d="M0 0h300v109a6 6 0 01-6 6H0V0z"/><filter id="a" width="121%" height="154.8%" x="-6.8%" y="-14.3%" filterUnits="objectBoundingBox"><feOffset dx="11" dy="15" in="SourceAlpha" result="shadowOffsetOuter1"/><feGaussianBlur in="shadowOffsetOuter1" result="shadowBlurOuter1" stdDeviation="8"/><feColorMatrix in="shadowBlurOuter1" values="0 0 0 0 0.556389192 0 0 0 0 0.562905632 0 0 0 0 0.578709609 0 0 0 0.1 0"/></filter><linearGradient id="d" x1="50%" x2="0%" y1="50%" y2="50%"><stop offset="0%" stop-color="#EAEDEF"/><stop offset="100%" stop-color="#FAFBFC"/></linearGradient><linearGradient id="e" x1="0%" x2="67.585%" y1="50%" y2="50%"><stop offset="0%" stop-color="#FAFBFC"/><stop offset="100%" stop-color="#EAEDEF"/></linearGradient></defs><g fill="none" fill-rule="evenodd" transform="translate(39 22)"><use fill="#000" filter="url(#a)" xlink:href="#b"/><use fill="url(#c)" xlink:href="#b"/><path fill="url(#d)" d="M0 23h239a6 6 0 010 12H0V23z"/><path fill="url(#e)" d="M0 43h101a6 6 0 010 12H0V43z"/><g transform="translate(124 74)"><path fill="#1D5FD1" d="M97.377 15.686h-2.505V20h-1.414V9.336h3.53c1.202 0 2.126.273 2.773.82.647.547.97 1.343.97 2.388 0 .664-.179 1.243-.538 1.736-.359.493-.858.862-1.498 1.106l2.505 4.526V20h-1.509l-2.314-4.314zm-2.505-1.15h2.16c.699 0 1.254-.18 1.667-.542.413-.361.619-.845.619-1.45 0-.66-.197-1.165-.59-1.516-.393-.352-.96-.53-1.703-.535h-2.153v4.043zm10.906 5.61c-1.074 0-1.948-.352-2.622-1.058-.674-.705-1.011-1.649-1.011-2.83v-.25c0-.786.15-1.488.45-2.105.3-.618.72-1.101 1.26-1.45a3.167 3.167 0 011.754-.524c1.03 0 1.831.34 2.403 1.018.571.678.857 1.65.857 2.915v.564H103.5c.02.781.248 1.412.685 1.893.437.481.992.722 1.666.722.479 0 .884-.098 1.216-.293a3.07 3.07 0 00.871-.777l.828.645c-.664 1.02-1.66 1.53-2.988 1.53zm-.169-7.104c-.547 0-1.005.199-1.377.597-.37.398-.6.956-.688 1.674h3.97v-.103c-.04-.689-.225-1.222-.557-1.6-.332-.379-.781-.568-1.348-.568zm.66-4.292h1.64l-1.963 2.153h-1.091l1.414-2.153zm10.861 7.375c0 1.207-.276 2.178-.827 2.916-.552.737-1.3 1.105-2.241 1.105-.962 0-1.72-.305-2.271-.915v3.816h-1.355V12.075h1.238l.066.88c.552-.684 1.318-1.026 2.3-1.026.952 0 1.705.359 2.26 1.076.553.718.83 1.717.83 2.996v.124zm-1.355-.153c0-.894-.19-1.6-.57-2.117-.382-.518-.904-.776-1.568-.776-.82 0-1.436.363-1.846 1.09v3.788c.405.722 1.025 1.084 1.86 1.084.65 0 1.166-.258 1.55-.773.383-.515.574-1.28.574-2.296zm2.718-.008c0-.776.152-1.474.457-2.094.306-.62.73-1.099 1.275-1.436.544-.337 1.166-.505 1.864-.505 1.079 0 1.952.373 2.618 1.12.667.747 1 1.741 1 2.981v.095c0 .772-.148 1.464-.443 2.077a3.365 3.365 0 01-1.267 1.432c-.55.342-1.18.512-1.893.512-1.075 0-1.945-.373-2.612-1.12-.666-.747-1-1.736-1-2.966v-.096zm1.362.161c0 .88.204 1.585.612 2.117.407.532.953.799 1.637.799.688 0 1.235-.27 1.64-.81.405-.54.608-1.295.608-2.267 0-.869-.206-1.573-.619-2.113-.412-.54-.96-.809-1.644-.809-.67 0-1.209.266-1.619.798-.41.533-.615 1.294-.615 2.285zm8.833-4.05l.044.996c.605-.761 1.396-1.142 2.373-1.142 1.675 0 2.52.945 2.534 2.834V20h-1.355v-5.244c-.005-.571-.135-.994-.392-1.267-.256-.274-.655-.41-1.197-.41-.44 0-.825.117-1.157.351a2.397 2.397 0 00-.777.923V20h-1.355v-7.925h1.282zm6.665 3.897c0-1.216.288-2.194.864-2.934.576-.74 1.33-1.11 2.263-1.11.928 0 1.663.318 2.205.953V8.75h1.355V20h-1.245l-.066-.85c-.542.664-1.296.996-2.263.996-.918 0-1.666-.375-2.245-1.127-.579-.752-.868-1.734-.868-2.945v-.102zm1.355.153c0 .899.186 1.602.557 2.11.37.508.883.762 1.538.762.86 0 1.487-.386 1.882-1.158V14.2c-.405-.747-1.028-1.12-1.868-1.12-.664 0-1.181.256-1.552.769-.371.512-.557 1.272-.557 2.277zm11.265-2.834a4.06 4.06 0 00-.667-.051c-.889 0-1.492.378-1.809 1.135V20h-1.355v-7.925h1.318l.022.916c.445-.708 1.075-1.062 1.89-1.062.264 0 .464.034.6.102v1.26zm4.394 6.855c-1.074 0-1.948-.352-2.622-1.058-.674-.705-1.01-1.649-1.01-2.83v-.25c0-.786.15-1.488.45-2.105.3-.618.72-1.101 1.26-1.45a3.167 3.167 0 011.754-.524c1.03 0 1.83.34 2.402 1.018.571.678.857 1.65.857 2.915v.564h-5.369c.02.781.248 1.412.685 1.893.437.481.993.722 1.666.722.479 0 .884-.098 1.216-.293.332-.196.623-.455.872-.777l.827.645c-.664 1.02-1.66 1.53-2.988 1.53zm-.168-7.104c-.547 0-1.006.199-1.377.597-.371.398-.6.956-.689 1.674h3.97v-.103c-.039-.689-.225-1.222-.557-1.6-.332-.379-.78-.568-1.347-.568z"/><path fill="#FFF" d="M77 6h15v19H77z"/><rect width="85" height="30" fill="#EBF9F1" rx="5"/><path fill="#1DD16E" d="M15.564 17.217h-4.467L10.093 20h-1.45l4.072-10.664h1.23L18.026 20h-1.442l-1.019-2.783zm-4.043-1.157h3.626l-1.816-4.988-1.81 4.988zm14.422.065c0 1.207-.276 2.178-.828 2.916-.552.737-1.299 1.105-2.241 1.105-.962 0-1.719-.305-2.27-.915v3.816h-1.355V12.075h1.237l.066.88c.552-.684 1.319-1.026 2.3-1.026.952 0 1.705.359 2.26 1.076.554.718.83 1.717.83 2.996v.124zm-1.355-.153c0-.894-.19-1.6-.571-2.117-.381-.518-.904-.776-1.568-.776-.82 0-1.435.363-1.845 1.09v3.788c.405.722 1.025 1.084 1.86 1.084.65 0 1.166-.258 1.549-.773s.575-1.28.575-2.296zm9.77.153c0 1.207-.275 2.178-.827 2.916-.552.737-1.3 1.105-2.241 1.105-.962 0-1.72-.305-2.271-.915v3.816h-1.355V12.075h1.238l.066.88c.552-.684 1.318-1.026 2.3-1.026.952 0 1.705.359 2.26 1.076.553.718.83 1.717.83 2.996v.124zm-1.355-.153c0-.894-.19-1.6-.57-2.117-.382-.518-.904-.776-1.568-.776-.82 0-1.436.363-1.846 1.09v3.788c.405.722 1.025 1.084 1.86 1.084.65 0 1.166-.258 1.55-.773.383-.515.574-1.28.574-2.296zm6.907-2.681a4.06 4.06 0 00-.666-.051c-.889 0-1.492.378-1.81 1.135V20H36.08v-7.925h1.318l.022.916c.444-.708 1.074-1.062 1.89-1.062.263 0 .463.034.6.102v1.26zm.74 2.673c0-.776.152-1.474.458-2.094.305-.62.73-1.099 1.274-1.436.545-.337 1.166-.505 1.864-.505 1.08 0 1.952.373 2.619 1.12.666.747 1 1.741 1 2.981v.095c0 .772-.148 1.464-.444 2.077a3.365 3.365 0 01-1.267 1.432c-.55.342-1.18.512-1.893.512-1.074 0-1.945-.373-2.611-1.12-.667-.747-1-1.736-1-2.966v-.096zm1.362.161c0 .88.204 1.585.612 2.117.407.532.953.799 1.637.799.688 0 1.235-.27 1.64-.81.406-.54.608-1.295.608-2.267 0-.869-.206-1.573-.619-2.113-.412-.54-.96-.809-1.644-.809-.669 0-1.208.266-1.619.798-.41.533-.615 1.294-.615 2.285zm12.444 3.091c-.527.62-1.301.93-2.322.93-.844 0-1.488-.245-1.93-.736-.442-.49-.665-1.217-.67-2.179v-5.156h1.355v5.12c0 1.201.488 1.802 1.465 1.802 1.035 0 1.724-.386 2.065-1.158v-5.764h1.355V20h-1.289l-.029-.784zm5.991-1.054l1.963-6.087h1.384L60.953 20H59.92l-2.871-7.925h1.384l2.014 6.087zm7.845 1.984c-1.075 0-1.949-.352-2.623-1.058-.673-.705-1.01-1.649-1.01-2.83v-.25c0-.786.15-1.488.45-2.105.3-.618.72-1.101 1.26-1.45a3.167 3.167 0 011.754-.524c1.03 0 1.831.34 2.402 1.018.572.678.857 1.65.857 2.915v.564h-5.368c.02.781.247 1.412.684 1.893.438.481.993.722 1.667.722.478 0 .884-.098 1.216-.293a3.07 3.07 0 00.871-.777l.828.645c-.664 1.02-1.66 1.53-2.988 1.53zm-.169-7.104c-.547 0-1.006.199-1.377.597-.371.398-.6.956-.688 1.674h3.97v-.103c-.04-.689-.225-1.222-.557-1.6-.332-.379-.782-.568-1.348-.568zm8.657.249a4.06 4.06 0 00-.666-.051c-.889 0-1.492.378-1.81 1.135V20H72.95v-7.925h1.318l.022.916c.444-.708 1.074-1.062 1.89-1.062.263 0 .464.034.6.102v1.26z"/></g></g></svg>
